X:75
%%score 1 2
T:Fortune my foe
M:C
L:1/8
K:Bb
V:1 clef-treble
V:2 clef-bass octave=-1
V:1
[B,DG]4[DG]3[D^FA]|[DGB]6[D^FA]2|G2d2c2B2&D4E2G2|A8&G4^F4|G4[CEG]3A|
w:For-tune my foe, why dost thou frown on me? And will thy
V:2
G,4B,3D|G6D2|B4[CG]4|[Dd]8|[Ec]4C4|
V:1
[DGB]6[C^FA]2|G2d2[Ec]2[GB]2&D4x4|[^FA]8|[D=Fd]4[DFd]3[DFd]|[DFd]6d2|[FBd]2f2[Ge]2[Bd]2|
w:fa vours ne-ver great-er be? Wilt thou, I say, for ev-er breed me
V:2
G,6A,2|B,4C4|D8|[B,=FB]4[B,FB]3[B,FB]|[B,FB]8|B,4E4|
V:1
c8&B4A4|[Fc]4[Af]3e|d6(cB)&B4E4|[^FA]2G2G2F2&x4[A,D]4|[B,DG]8||
w:pain, And wilt thou not re-*store my joys a gain?
V:2
F8|[A,F]4F,4|G,4C4|D2E2D4|G8||

